X: 33615
T: Rakish Paddy
R: reel
M: 4/4
K: Adorian
AB|:~c3 B cBAB|cBAG E ~G3|Add^c defe|dcAG FGAB|
~c3 B cBAB|cBAG EFGE|DEFG ABcA|1 dcAG FGAB:|2 dcAG FD D2||
|:e ~g3 a ~g3|e ~g3 edBd|e ~a3 bgag|eaag edBd|
e ~g3 a ~g3|egge defg|afge fde^c|1 dcAG FD D2:|2 dcAG FGAB||

